svg/editor/signature_line.svg

<?xml version="1.0" encoding="UTF-8"?>
<svg width="24px" height="24px" viewBox="0 0 24 24" version="1.1" xmlns="http://www.w3.org/2000/svg" xmlns:xlink="http://www.w3.org/1999/xlink">
    <title>signature_line</title>
    <g id="Icon" stroke="none" stroke-width="1" fill="none" fill-rule="evenodd">
        <g id="Editor" transform="translate(-720.000000, -192.000000)">
            <g id="signature_line" transform="translate(720.000000, 192.000000)">
                <path d="M24,0 L24,24 L0,24 L0,0 L24,0 Z M12.5935,23.2578 L12.5819,23.2595 L12.5109,23.295 L12.4919,23.2987 L12.4767,23.295 L12.4057,23.2595 C12.3958,23.2564 12.387,23.259 12.3821,23.2649 L12.378,23.2758 L12.3609,23.7031 L12.3659,23.7235 L12.3769,23.7357 L12.4805,23.8097 L12.4953,23.8136 L12.5071,23.8097 L12.6107,23.7357 L12.6233,23.7197 L12.6267,23.7031 L12.6096,23.2758 C12.6076,23.2657 12.601,23.2593 12.5935,23.2578 Z M12.8584,23.1453 L12.8445,23.1473 L12.6598,23.2397 L12.6499,23.2499 L12.6472,23.2611 L12.6651,23.6906 L12.6699,23.7034 L12.6784,23.7105 L12.8793,23.8032 C12.8914,23.8069 12.9022,23.803 12.9078,23.7952 L12.9118,23.7812 L12.8777,23.1665 C12.8753,23.1546 12.8674,23.147 12.8584,23.1453 Z M12.143,23.1473 C12.1332,23.1424 12.1222,23.1453 12.1156,23.1526 L12.1099,23.1665 L12.0758,23.7812 C12.0751,23.7927 12.0828,23.8019 12.0926,23.8046 L12.1083,23.8032 L12.3092,23.7105 L12.3186,23.7024 L12.3225,23.6906 L12.3404,23.2611 L12.3372,23.2485 L12.3278,23.2397 L12.143,23.1473 Z" id="形状" fill-rule="nonzero"></path>
                <path d="M16.2386,4.79089 C15.6439,4.91676 14.7829,5.26772 13.6882,5.87461 C11.6551,7.00179 8.92556,9.16856 5.73995,12.6727 C5.36844,13.0814 4.73599,13.1115 4.32733,12.74 C3.91868,12.3685 3.88856,11.736 4.26007,11.3274 C7.53559,7.7243 10.4323,5.39293 12.7184,4.12545 C13.8784,3.48237 14.9427,3.02085 15.8245,2.83423 C16.6033,2.6694 17.7669,2.62402 18.3661,3.60301 C18.6371,4.04578 18.6791,4.55094 18.6313,5.00682 C18.5828,5.46797 18.4336,5.97179 18.2137,6.5058 C17.7734,7.57494 16.9819,8.92642 15.817,10.5767 C14.4551,12.5061 13.7142,13.8172 13.3802,14.6663 C13.2979,14.8754 13.2471,15.04 13.2167,15.1659 C13.3216,15.1442 13.4477,15.1104 13.5952,15.0612 C14.1504,14.8763 14.8299,14.5359 15.4855,14.1425 C16.1253,13.7586 16.7046,13.481 17.2066,13.4034 C17.4696,13.3627 17.8157,13.36 18.1533,13.5293 C18.5217,13.7141 18.7289,14.0262 18.8256,14.3224 C18.9687,14.7606 18.9042,15.2346 18.8023,15.6741 C18.6369,16.3875 18.3588,17.0686 18.1809,17.7784 C18.2897,17.7324 18.4132,17.6754 18.5528,17.6056 C19.0468,17.3587 19.6475,17.5589 19.8944,18.0529 C20.1414,18.5468 19.9412,19.1475 19.4472,19.3945 C18.7978,19.7192 18.1822,19.9462 17.6373,19.9444106 C17.3402,19.9434 17.0025,19.8741 16.7032,19.6545 C16.3991,19.4312 16.2389,19.1293 16.1622,18.8562 C16.0271,18.3748 16.1145,17.8495 16.1956,17.4839 C16.3266,16.8924 16.5333,16.3217 16.7101,15.7431 C15.9064,16.2006 15.1097,16.6648 14.2273,16.9587 C13.855,17.0827 13.4542,17.1802 13.0669,17.1961 C12.6929,17.2114 12.1942,17.1551 11.7771,16.8166 C11.3252,16.4499 11.1744,15.924 11.175,15.4395 C11.1756,14.9766 11.3089,14.4685 11.519,13.9342 C11.9424,12.8578 12.795,11.3898 14.183,9.42334 C15.3122,7.82362 16.0068,6.61261 16.3643,5.74427 C16.4947,5.42773 16.6279,5.08392 16.6471,4.73785 C16.5642,4.738 16.4342,4.7495 16.2386,4.79089 Z" id="路径" fill="#09244B"></path>
            </g>
        </g>
    </g>
</svg>

<svg xmlns="http://www.w3.org/2000/svg" width="24" height="24"><g fill="none" fill-rule="evenodd"><path d="M24 0v24H0V0h24ZM12.594 23.258l-.012.002-.071.035-.02.004-.014-.004-.071-.036c-.01-.003-.019 0-.024.006l-.004.01-.017.428.005.02.01.013.104.074.015.004.012-.004.104-.074.012-.016.004-.017-.017-.427c-.002-.01-.009-.017-.016-.018Zm.264-.113-.014.002-.184.093-.01.01-.003.011.018.43.005.012.008.008.201.092c.012.004.023 0 .029-.008l.004-.014-.034-.614c-.003-.012-.01-.02-.02-.022Zm-.715.002a.023.023 0 0 0-.027.006l-.006.014-.034.614c0 .012.007.02.017.024l.015-.002.201-.093.01-.008.003-.011.018-.43-.003-.012-.01-.01-.184-.092Z"/><path fill="#09244B" d="M16.239 4.79c-.595.127-1.456.478-2.55 1.085-2.034 1.127-4.763 3.294-7.949 6.798a1 1 0 1 1-1.48-1.346c3.276-3.603 6.172-5.934 8.458-7.202 1.16-.643 2.225-1.104 3.107-1.29.778-.166 1.942-.211 2.541.768.271.443.313.948.265 1.404-.048.461-.197.965-.417 1.499-.44 1.069-1.232 2.42-2.397 4.07-1.362 1.93-2.103 3.241-2.437 4.09a3.86 3.86 0 0 0-.163.5c.105-.022.23-.056.378-.105.555-.185 1.235-.525 1.89-.918.64-.384 1.22-.662 1.722-.74.263-.04.609-.043.946.126.369.185.576.497.673.793.143.439.078.913-.024 1.352-.165.713-.443 1.395-.621 2.104.109-.046.232-.103.372-.172a1 1 0 0 1 .894 1.788c-.65.325-1.265.552-1.81.55a1.567 1.567 0 0 1-.934-.29 1.468 1.468 0 0 1-.54-.798c-.136-.481-.049-1.007.033-1.372.13-.592.337-1.162.514-1.74-.804.457-1.6.92-2.483 1.215a4.314 4.314 0 0 1-1.16.237c-.374.015-.873-.04-1.29-.38-.452-.366-.603-.892-.602-1.376 0-.463.134-.971.344-1.506.423-1.076 1.276-2.544 2.664-4.51 1.13-1.6 1.824-2.811 2.181-3.68.13-.316.264-.66.283-1.006-.083 0-.213.011-.408.053Z"/></g></svg>
